X:1
T:Title
L:1/8
Q:1/4=79
M:6/8
K:F
V:1 treble nm="Church Organ, Staff"
V:1
 c2 d c2 A | F2 A c3 | d2 B B2 d | c2 A .c3 | def e2 d | c3 c2 d | B2 A B2 c | A3 F2 G | %8
w: By~A.~H.~Brown * * *||||||||
 AGA- A/ z/ =Bc- | c2 c- c/ z/ z d- | dBG- G/ z/ Bc- | cAF- F3/2 z/ B- | BGE- E/ z/ GA- | %13
w: |||||
 AFD- D/ z/ z D- | DCD EFG- | GGc- c3/2 z/ d- | dBA- A/ z/ Gc- | c2 f- f/ z/ z d | AFG- G/ z/ AF- | %19
w: ||||||
 F2 F- F/ z/ z z |] %20
w: |

